X:0801
T:Tulloch gorm
P:Tulloch gorm
C:From Wm. Campbell's Eleventh Book, 1796
R:Strathspey (8x32)
B:RSCDS 8-1
Z:Anselm Lingnau <anselm@strathspey.org>
M:4/4
L:1/8
K:GMix
A|"G"B>G d>G "F"c>F A2|"G"B>G d>G B>c d>g|\
  "G"B>G d>G "F"c>F A>c|"G"B>G d>G "F"F2 A A|
  "G"B>G d>G "F"c>F A2|"G"B>G d>G B>c d>g|\
  "G"B>G d>G "F"c>F A>c|"G"BG dG "Dm"A/B/c "G"B||
A|"G"G>g d>g "F"f>F A2|"G"G>g d>g B>g d>g|\
  "G"G>g d>g "F"f>F A2|"G"G>g d>g "D"A/B/c B>A|
  "G"G>g d>g "F"f>F A2|"C"G>g "G"d>e "F"f>c f>g|\
  "F"a/g/f/e/ f>d c>F A>a|"G"g>d g>b "C"e>g "G"d|]
